static/assets/images/networks/dydx.svg

<svg width="256" height="256" viewBox="0 0 256 256" fill="none" xmlns="http://www.w3.org/2000/svg">
<path d="M128 256C198.692 256 256 198.692 256 128C256 57.3075 198.692 0 128 0C57.3075 0 0 57.3075 0 128C0 198.692 57.3075 256 128 256Z" fill="black"/>
<path d="M163.946 50L55.5 205.487H88.7956L197.805 50H163.946Z" fill="white"/>
<path d="M92.2636 50L124.172 95.8169L107.524 120.808L58.2744 50H92.2636Z" fill="url(#paint0_linear_9177_785)"/>
<path d="M167.179 205.501L131.803 154.824L148.451 130.527L200.475 205.501H167.179Z" fill="url(#paint1_linear_9177_785)"/>
<defs>
<linearGradient id="paint0_linear_9177_785" x1="84.6334" y1="59.7187" x2="130.353" y2="114.87" gradientUnits="userSpaceOnUse">
<stop stop-color="white"/>
<stop offset="1" stop-color="white" stop-opacity="0.55"/>
</linearGradient>
<linearGradient id="paint1_linear_9177_785" x1="174.81" y1="193.699" x2="118.632" y2="118.025" gradientUnits="userSpaceOnUse">
<stop stop-color="#6966FF"/>
<stop offset="1" stop-color="#6966FF" stop-opacity="0.36"/>
</linearGradient>
</defs>
</svg>

<svg xmlns="http://www.w3.org/2000/svg" fill="none" viewBox="0 0 256 256"><path fill="#000" d="M128 256c70.692 0 128-57.308 128-128S198.692 0 128 0 0 57.308 0 128s57.308 128 128 128"/><path fill="#fff" d="M163.946 50 55.5 205.487h33.296L197.805 50z"/><path fill="url(#paint0_linear_9177_785)" d="m92.264 50 31.908 45.817-16.648 24.991L58.274 50z"/><path fill="url(#paint1_linear_9177_785)" d="m167.179 205.501-35.376-50.677 16.648-24.297 52.024 74.974z"/><defs><linearGradient id="paint0_linear_9177_785" x1="84.633" x2="130.353" y1="59.719" y2="114.87" gradientUnits="userSpaceOnUse"><stop stop-color="#fff"/><stop offset="1" stop-color="#fff" stop-opacity=".55"/></linearGradient><linearGradient id="paint1_linear_9177_785" x1="174.81" x2="118.632" y1="193.699" y2="118.025" gradientUnits="userSpaceOnUse"><stop stop-color="#6966FF"/><stop offset="1" stop-color="#6966FF" stop-opacity=".36"/></linearGradient></defs></svg>
